!!!OTL: WILLST DU ABER NICHT RECHT LIEBEN
!!!ARE: Europa, Mitteleuropa, Deutschland, Hessen, Wetterau, Langsdorf
!!!SCT: E0699C
!!!YEM: Copyright 1995, estate of Helmut Schaffrath.
**kern
*ICvox
*Ivox
*M3/4
*k[b-e-]
*B-:
{8d
8f
=1
4b-
4f
8g
8a
=2
8b-
8f
4f}
{8a
8b-
=3
4.cc
8f
8g
8f
=4
2d}
{8f
8f
=5
8ee-
8dd
8cc
8b-
8b-
8g
=6
4g
4f}
{8f
8a
=7
8b-
8dd
4ff
8ee-
8cc
=8
2b-}
==
!!!AGN: Liebes - Lied, Leid, Klage
!!!ONB: ESAC (Essen Associative Code) Database: ERK2
!!!AMT: simple triple
!!!AIN: vox
!!!EED: Helmut Schaffrath
!!!EEV: 1.0
*-
